Origami/16x16/apps/qsampler.svg

<svg width="16" height="16" version="1.1" viewBox="0 0 16 16" xmlns="http://www.w3.org/2000/svg">
 <path d="m8 0a8 8 0 0 0 -8 8 8 8 0 0 0 8 8 8 8 0 0 0 8 -8 8 8 0 0 0 -8 -8z" style="fill:#28287b"/>
 <path d="m8.3334764 2.9999997c-0.1958699 6.21e-5 -0.3972812 0.0081067-0.6043427 0.0248649-1.8323975 0.1482829-3.1465373 1.0420159-4.2079838 2.1010651h-9.83e-5c-0.7488526 0.7477042-1.3053156 1.7962062-1.4618599 2.846825-0.2271403 1.5243576 0.1996027 2.8849903 1.2776274 3.8657203 0.9141267 0.831627 2.3599702 1.125292 3.8773967 1.157876 1.064298 0.02288 2.2630735-0.06159 3.1578032-0.260429 0.447362-0.09942 0.830998-0.226617 1.112911-0.389671 0.281909-0.163054 0.472818-0.373155 0.478953-0.630524l9.8e-5 -9.52e-4v-9.52e-4c1.1e-5 -0.41907-0.250995-0.763124-0.615594-1.043392-1.055644-0.7188017-2.5420034-1.1330307-3.7128475-1.7038672-0.3226803-0.1474095-0.6141504-0.340741-0.6572368-0.6488731-0.055122-0.3942042 0.5676062-0.6191006 0.8713947-0.6513917 0.423175-0.036823 1.6565151-0.020704 2.0872194 0.020971 0.4307072 0.041661 0.8031832 0.2556197 0.9506952 0.3113586l0.01145 0.00437 0.01222 0.00171c0.02939 0.00379 0.0729-0.012029 0.09212-0.032561 0.01921-0.020568 0.02279-0.03684 0.02539-0.047967 0.0052-0.022264 0.0035-0.032457 0.0024-0.043698-0.0018-0.022461-0.0062-0.043833-0.01239-0.07079-0.01248-0.053913-0.03333-0.1262337-0.06113-0.2133955-0.055537-0.174312-0.138736-0.3055987-0.235257-0.5412443-0.096526-0.2356457-0.205854-0.4277343-0.315684-0.6174161-0.054913-0.0948392-0.109701-0.1774299-0.16606-0.2429881-0.056277-0.0654596-0.111734-0.1190529-0.193465-0.1395211-0.1074914-0.0279857-0.2624978-0.0352893-0.4703981-0.0327642-0.2083996 0.0027142-0.9023696 0.0174463-1.1891744 0.0446263-0.5736129 0.0543225-1.1919667 0.1112647-1.848989 0.2632629-0.6570268 0.1519979-1.4771163 0.3510718-1.9102993 0.6074224-0.2165916 0.1281758-0.3883547 0.2708593-0.4907792 0.4386564-0.1024106 0.1677738-0.1273811 0.2648156-0.0485613 0.460352v9.5e-5c0.1676305 0.4245578 0.5924315 0.7434756 1.1159906 1.0171334 1.0946524 0.5746586 2.4252727 0.9412316 3.4590877 1.5568143 0.380617 0.199685 0.6355165 0.496166 0.5783781 0.796508-0.060123 0.316032-0.4537727 0.554662-0.793883 0.663298-0.6116405 0.195367-1.3919954 0.174888-1.9342583 0.156936-1.2569513-0.052162-2.2145123-0.387647-3.0776514-1.33032-0.5363278-0.585744-0.609212-1.1878957-0.6675418-2.0504125-0.0571398-0.8448843 0.1438837-1.7990927 0.6344631-2.5004802 1.090557-1.5591948 2.4329857-2.4502521 4.315005-2.6911403 2.2207133-0.2737817 3.7381083 0.4946521 4.7091493 1.3226538 0.485523 0.414001 0.83286 0.9149274 1.057335 1.2355052 0.112236 0.1602921 0.19376 0.2932757 0.246735 0.3838288 0.02648 0.045273 0.04569 0.079819 0.05866 0.1027979 0.0065 0.011486 0.01095 0.01941 0.01605 0.027647 0.0024 0.00413-0.0014 0.0035 0.01742 0.022361 0.0048 0.00471 0.0348 0.022871 0.0349 0.022904 9.9e-5 3.71e-5 0.126882-0.041028 0.126928-0.041103 4.5e-5 -9.46e-5 0.01458-0.046144 0.01422-0.054462-3.44e-4 -0.0083-1e-3 -0.012232-0.0018-0.015482-0.0054-0.027279-0.0082-0.026192-0.01299-0.037294-0.0049-0.011115-0.01113-0.024533-0.01913-0.040734-0.01601-0.032425-0.03891-0.075957-0.06913-0.1295176-0.060443-0.1071201-0.150205-0.2538833-0.271044-0.4263186-0.24167-0.3448678-0.607615-0.8639014-1.11195-1.2981327-0.882578-0.7599053-2.193006-1.4786751-3.9864395-1.5267651-0.064051-0.0017143-0.1287544-0.0026096-0.1940407-0.0026096z" style="fill:#9868ff"/>
</svg>

<svg xmlns="http://www.w3.org/2000/svg" width="16" height="16" version="1.1" viewBox="0 0 16 16">
 <path style="fill:#28287b" d="M 8,0 A 8,8 0 0 0 0,8 8,8 0 0 0 8,16 8,8 0 0 0 16,8 8,8 0 0 0 8,0 Z"/>
 <path style="fill:#9868ff" d="M 8.3334764,2.9999997 C 8.1376065,3.0000618 7.9361952,3.0081064 7.7291337,3.0248646 5.8967362,3.1731475 4.5825964,4.0668805 3.5211499,5.1259297 h -9.83e-5 C 2.772199,5.8736339 2.215736,6.9221359 2.0591917,7.9727547 1.8320514,9.4971123 2.2587944,10.857745 3.3368191,11.838475 c 0.9141267,0.831627 2.3599702,1.125292 3.8773967,1.157876 1.064298,0.02288 2.2630735,-0.06159 3.1578032,-0.260429 0.447362,-0.09942 0.830998,-0.226617 1.112911,-0.389671 0.281909,-0.163054 0.472818,-0.373155 0.478953,-0.630524 l 9.8e-5,-9.52e-4 v -9.52e-4 c 1.1e-5,-0.41907 -0.250995,-0.763124 -0.615594,-1.043392 C 10.292743,9.9516293 8.8063836,9.5374003 7.6355395,8.9665638 7.3128592,8.8191543 7.0213891,8.6258228 6.9783027,8.3176907 6.9231807,7.9234865 7.5459089,7.6985901 7.8496974,7.666299 8.2728724,7.629476 9.5062125,7.645595 9.9369168,7.68727 10.367624,7.728931 10.7401,7.9428897 10.887612,7.9986286 l 0.01145,0.00437 0.01222,0.00171 c 0.02939,0.00379 0.0729,-0.012029 0.09212,-0.032561 0.01921,-0.020568 0.02279,-0.03684 0.02539,-0.047967 0.0052,-0.022264 0.0035,-0.032457 0.0024,-0.043698 -0.0018,-0.022461 -0.0062,-0.043833 -0.01239,-0.07079 -0.01248,-0.053913 -0.03333,-0.1262337 -0.06113,-0.2133955 C 10.902135,7.4219851 10.818936,7.2906984 10.722415,7.0550528 10.625889,6.8194071 10.516561,6.6273185 10.406731,6.4376367 10.351818,6.3427975 10.29703,6.2602068 10.240671,6.1946486 10.184394,6.129189 10.128937,6.0755957 10.047206,6.0551275 9.9397146,6.0271418 9.7847082,6.0198382 9.5768079,6.0223633 9.3684083,6.0250775 8.6744383,6.0398096 8.3876335,6.0669896 7.8140206,6.1213121 7.1956668,6.1782543 6.5386445,6.3302525 5.8816177,6.4822504 5.0615282,6.6813243 4.6283452,6.9376749 4.4117536,7.0658507 4.2399905,7.2085342 4.137566,7.3763313 4.0351554,7.5441051 4.0101849,7.6411469 4.0890047,7.8366833 v 9.5e-5 C 4.2566352,8.2613361 4.6814362,8.5802539 5.2049953,8.8539117 6.2996477,9.4285703 7.630268,9.7951433 8.664083,10.410726 9.0447,10.610411 9.2995995,10.906892 9.2424611,11.207234 9.1823381,11.523266 8.7886884,11.761896 8.4485781,11.870532 7.8369376,12.065899 7.0565827,12.04542 6.5143198,12.027468 5.2573685,11.975306 4.2998075,11.639821 3.4366684,10.697148 2.9003406,10.111404 2.8274564,9.5092523 2.7691266,8.6467355 2.7119868,7.8018512 2.9130103,6.8476428 3.4035897,6.1462553 4.4941467,4.5870605 5.8365754,3.6960032 7.7185947,3.455115 9.939308,3.1813333 11.456703,3.9497671 12.427744,4.7777688 c 0.485523,0.414001 0.83286,0.9149274 1.057335,1.2355052 0.112236,0.1602921 0.19376,0.2932757 0.246735,0.3838288 0.02648,0.045273 0.04569,0.079819 0.05866,0.1027979 0.0065,0.011486 0.01095,0.01941 0.01605,0.027647 0.0024,0.00413 -0.0014,0.0035 0.01742,0.022361 0.0048,0.00471 0.0348,0.022871 0.0349,0.022904 9.9e-5,3.71e-5 0.126882,-0.041028 0.126928,-0.041103 4.5e-5,-9.46e-5 0.01458,-0.046144 0.01422,-0.054462 -3.44e-4,-0.0083 -0.001,-0.012232 -0.0018,-0.015482 -0.0054,-0.027279 -0.0082,-0.026192 -0.01299,-0.037294 -0.0049,-0.011115 -0.01113,-0.024533 -0.01913,-0.040734 -0.01601,-0.032425 -0.03891,-0.075957 -0.06913,-0.1295176 C 13.836499,6.1471 13.746737,6.0003368 13.625898,5.8279015 13.384228,5.4830337 13.018283,4.9640001 12.513948,4.5297688 11.63137,3.7698635 10.320942,3.0510937 8.5275085,3.0030037 8.4634575,3.0012894 8.3987541,3.0003941 8.3334678,3.0003941 Z"/>
</svg>
